X:5
T:LÃ¤ndler CGF 5- chords
M:3/4
L:1/8
K:Cmaj%%MIDI gchordon
G2 |: "C"E4G2 | "G7"FE FG F2 | B4d2 | "C"cB cd e2 | E4G2 | "G7"FE FG F2 | B4d2 |1 "C"c2z2G2 :|2 "C"c2z2Bc || [K:Gmaj] 
"G"dB G2G2 | "C"ed cB AG | "D7"FA c2 FF | "G"GB d2 Bc | dB G2G2 | "C"ed cB AG | "D7"FA c2 AF | 
"G"GF GA G=F || [K:Fmaj] cB |:"F"Ac =Bc dc | fe dc BA | "C7"GA Bc de | "F"f2c2 cB | 
Ac =Bc dc | fe dc BA | "C7"GA Bc de |1 "F"f2 z2 Bc :|2 "F"f2 z2 GA |: "C7"B2A2B2 | G2A2B2 | 
"F"c2=B2c2 | A4 cB | Ac =Bc dc | fe dc BA | "C7"GA Bc de |1 "F"f2 z2 GA :|2 "F"f2z2z2 |] 

